ix/shapes-2_linear.svg

<svg viewBox="0 0 24 24" fill="none" xmlns="http://www.w3.org/2000/svg" height="1em" width="1em">
  <path d="M16.97 12.25v4.5c0 3.75-1.5 5.25-5.25 5.25h-4.5c-3.75 0-5.25-1.5-5.25-5.25v-4.5C1.97 8.5 3.47 7 7.22 7h4.5c3.75 0 5.25 1.5 5.25 5.25Z" stroke="#292D32" stroke-width="1.5" stroke-linecap="round" stroke-linejoin="round"/>
  <path d="M21.97 7.5c0 2.87-2.19 5.22-5 5.47v-.72c0-3.75-1.5-5.25-5.25-5.25H11c.25-2.81 2.6-5 5.47-5 2.79 0 5.09 2.07 5.44 4.77.04.23.06.48.06.73Z" stroke="#292D32" stroke-width="1.5" stroke-linecap="round" stroke-linejoin="round"/>
</svg>

<svg viewBox="0 0 24 24" fill="none" xmlns="http://www.w3.org/2000/svg" height="1em" width="1em">
  <path d="M16.97 12.25V16.75C16.97 20.5 15.47 22 11.72 22H7.22C3.47 22 1.97 20.5 1.97 16.75V12.25C1.97 8.5 3.47 7 7.22 7H11.72C15.47 7 16.97 8.5 16.97 12.25Z" stroke="#292D32" stroke-width="1.5" stroke-linecap="round" stroke-linejoin="round"/>
  <path d="M21.97 7.5C21.97 10.37 19.78 12.72 16.97 12.97V12.25C16.97 8.5 15.47 7 11.72 7H11C11.25 4.19 13.6 2 16.47 2C19.26 2 21.56 4.07 21.91 6.77C21.95 7 21.97 7.25 21.97 7.5Z" stroke="#292D32" stroke-width="1.5" stroke-linecap="round" stroke-linejoin="round"/>
</svg>
